X: 061598
T: First of August
T: Bruacha na Life
T: Liffey Banks (T.Potts setting)
S: B.Breathnach:"Ceol Rince na hEireann" III/82 
Z: B.Black
L: 1/8
M: 4/4
R: reel
K: G
d>c|B2 GF GBdB|c2 cd efge|dcBA AFGE|DG (3BAG AGEF|
GEDE GBdB|c2 cd g2 gA|B3G AFGE|DEGB (3ABA FD|
GABG FAEF|DGBd efge|dcBG AFGE|DG (3BAG AGEF|
GEDE GBdB|c2 cd g2 gA|B3G AFGE|DEGB (3ABA G2 ||
zgge d2 Bd|gabg agef|gafg edBd|gabg (3aba g2|
g3e d2 Bd|g>aab agef|gb (3agf efge|dddc Bcde ||
